resources/svg/edit.svg

<svg xmlns="http://www.w3.org/2000/svg" viewBox="0 0 24 24" fill="currentColor"><path fill="none" stroke="currentColor" stroke-width="2" d="M14,4 L20,10 L14,4 Z M22.2942268,5.29422684 C22.6840146,5.68401459 22.6812861,6.3187139 22.2864907,6.71350932 L9,20 L2,22 L4,15 L17.2864907,1.71350932 C17.680551,1.319449 18.3127724,1.31277239 18.7057732,1.70577316 L22.2942268,5.29422684 Z M3,19 L5,21 M7,17 L15,9"/></svg>

<svg viewBox="0 0 24 24"><path fill="none" stroke="currentColor" stroke-width="2" d="M14 4l6 6l-6-6zm8.294 1.294c.39.39.387 1.025-.008 1.42L9 20l-7 2l2-7L17.286 1.714a1 1 0 0 1 1.42-.008l3.588 3.588zM3 19l2 2m2-4l8-8"/></svg>
